data/lxgw-wenkai-tc.svg

<svg width="115.33" height="18.438" viewBox="0 0 115.33 18.438" xmlns="http://www.w3.org/2000/svg"><path transform="translate(0 14.448) scale(.014 -.014)" d="m139-9q-17 0-33 28-7 11-7 18t3.5 14 3.5 19v519l-3 106q0 10 19 10t38.5-7.5 19.5-20.5l-2-89v-529q78 5 167 5h113q24 0 37 1h1q13 0 22.5-19t9.5-35-11-16h-1q-39 6-103 6h-41q-192 0-230-10z"/><path transform="translate(7.658 14.448) scale(.014 -.014)" d="m514-4q-10 14-26 39t-58 84.5-130 192.5q-138-202-164-241.5t-33-50-13.5-20.5-26.5-10-37 7.5-17 17.5q0 3 5 10 56 64 102 133.5t145 210.5q-148 227-208 294-8 9-8 14 0 13 20 22t37 9 22-8q25-47 87-138t96-143q62 87 98.5 139t55.5 79 27 39l12 18q5 6 18 6t31-11.5 18-20-14-22.5-95-122q-64-89-115-163 113-170 156-226.5t91-106.5q4-4 4-9 0-11-19.5-21.5t-36-10.5-24.5 9z"/><path transform="translate(16.058 14.448) scale(.014 -.014)" d="m371-17q-197 0-274 130-41 69-41 167 0 185 100 306 102 127 255.5 127t221.5-85q4-4 4-15.5t-13-28-23.5-16.5-14.5 6q-14 22-42 42-50 35-123 35t-124-27.5-89-76.5q-82-104-82-252 0-177 114-225 55-24 125.5-24t126.5 33 90.5 92 34.5 137q0 3-4 3l-114-8q-21-1-75-8h-2q-14 0-26 18.5t-12 33 12 14.5h14q44 0 70 2l124 7q8 1 17 2.5t17 1.5 20-9q31-23 31-39 0-7-4.5-12t-4.5-16v-201q0-8 0.5-26t1-36 0.5-28q0-13-20-13t-37 6.5-17 15.5v1q5 53 5 109-43-91-150-127-47-16-92-16z"/><path transform="translate(26.586 14.448) scale(.014 -.014)" d="m666 7q-6-25-26.5-25t-39.5 16-27 48q-77 332-134 535-34-109-77.5-265.5t-57-204.5-17.5-65.5-11.5-40-26-22.5-36.5 16-26 47q-125 516-177 638-1 2-1 5 0 16 39.5 16t43.5-20l14-53q64-217 130-532 35 145 73 274t58.5 199.5 22.5 96.5q0 20 37 20 18 0 35.5-6t18.5-17q2-13 12.5-47.5t54-199.5 77.5-321q82 298 118.5 417.5t52.5 184.5q3 10 16.5 10t27.5-5q34-14 34-33 0-3-6-17-49-115-185-577-4-16-8-34.5t-9-37.5z"/><path transform="translate(43.806 14.448) scale(.014 -.014)" d="m666 7q-6-25-26.5-25t-39.5 16-27 48q-77 332-134 535-34-109-77.5-265.5t-57-204.5-17.5-65.5-11.5-40-26-22.5-36.5 16-26 47q-125 516-177 638-1 2-1 5 0 16 39.5 16t43.5-20l14-53q64-217 130-532 35 145 73 274t58.5 199.5 22.5 96.5q0 20 37 20 18 0 35.5-6t18.5-17q2-13 12.5-47.5t54-199.5 77.5-321q82 298 118.5 417.5t52.5 184.5q3 10 16.5 10t27.5-5q34-14 34-33 0-3-6-17-49-115-185-577-4-16-8-34.5t-9-37.5z"/><path transform="translate(56.126 14.448) scale(.014 -.014)" d="m244-18q-51 0-92.5 25.5t-65.5 73.5-24 114v14q-21 16-21 32 0 13 19 13l9 1q15 79 86 155t164 76q62 0 99-22 67-39 67-124 0-34-5.5-54t-25.5-32.5-65-26.5q-100-31-249-31h-13v-10q0-65 33.5-105t90.5-40q126 0 204 84 13 15 23 15t10-10.5-14.5-33.5-44.5-50q-73-64-185-64zm-109 270h20q112 0 207 26 36 11 46.5 24t10.5 39q0 87-101 87-69 0-119-57.5t-64-118.5z"/><path transform="translate(63.728 14.448) scale(.014 -.014)" d="m161-1q0-10-17.5-10t-35.5 7.5-18 20.5l2 98v249l-3 107q0 10 17.5 10t35.5-7.5 18-20.5v-14q-2-28-2-63 32 53 83.5 81t102.5 28q92 0 126-63 26-46 26-125v-192l3-106q0-10-17.5-10t-35.5 7.5-18 19.5v1q1 8 1 27l1 71v178q0 59-16 94.5t-66 35.5q-79 0-132.5-57.5t-55.5-203.5q-1-33-2-57v-16q0-30 3-90z"/><path transform="translate(71.96 14.448) scale(.014 -.014)" d="m179-1q0-10-18.5-10t-37.5 7.5-19 20.5l2 95v477l-3 106q0 10 19 10t37.5-7.5 18.5-20.5l-2-89v-176q113 88 208 178.5t104.5 102 24.5 11.5 36-11.5 21-22.5q0-5-9.5-13t-29.5-24-83.5-74-191.5-161q1 0 18.5-20t47.5-53q187-206 296-298 4-3 4-7 0-10-20-19.5t-43-9.5-30 11q-17 23-40 47-182 190-283 308l-30-24v-222z"/><path transform="translate(80.78 14.448) scale(.014 -.014)" d="m217-18q-73 0-117 49.5t-44 143.5q0 125 78 219 35 43 79 67.5t90 24.5q78 0 110-66v55q0 10 19 10t38-7 19-19v-2q-13-89-13-262 0-105 35-160 2-4 2-10.5t-13.5-22-29.5-15.5q-41 0-55 131-37-70-89.5-103t-108.5-33zm3 60q44 0 87 32 104 76 104 256 0 25 1 50-9-9-15-9t-9 4q-31 53-90.5 53t-116.5-72-57-176q0-138 96-138z"/><path transform="translate(88.83 14.448) scale(.014 -.014)" d="m169-1q0-9-17.5-9t-37 7.5-19.5 19.5l2 88v263l-3 107q0 9 18 9t37-7.5 19-19.5l-2-89v-263zm-4.5 679q15.5-20 15.5-40.5t-13-34-34-13.5-36.5 19.5-15.5 40 12.5 34.5 34 14 37-20z"/><path transform="translate(97.412 14.448) scale(.014 -.014)" d="m326 0q0-11-19.5-11t-38.5 8-19 21l2 89 1 525-126-7q-25-1-48.5-4.5t-34.5-4.5h-1q-13 0-23 18t-10 34.5 13 16.5l71-2 354 19q23 2 47 4t36 4h3q12 0 21-18t9-34.5-12-16.5l-80 3-149-8 1-530z"/><path transform="translate(105.49 14.448) scale(.014 -.014)" d="m357-18q-87 0-156.5 32t-109.5 100.5-40 167.5 27 175.5 75.5 134 113.5 89.5 141 32q149 0 220-85 3-4 3-14.5t-13-27.5-24.5-17-17.5 9q-46 71-166.5 71t-201.5-99q-85-101-85-261.5t115-216.5q54-27 112.5-27t109.5 17.5 98 49.5 78 73q12 15 25 15t13-13-14-37q-34-59-104-106-89-62-199-62z"/></svg>

<?xml version="1.0" encoding="utf-8" ?>
<svg baseProfile="tiny" height="100%" version="1.2" width="100%" xmlns="http://www.w3.org/2000/svg" xmlns:ev="http://www.w3.org/2001/xml-events" xmlns:xlink="http://www.w3.org/1999/xlink"><defs /><g><path d="M139 -9Q122 -9 106 19Q99 30 99.0 37.0Q99 44 102.5 51.0Q106 58 106 70V589L103 695Q103 705 122.0 705.0Q141 705 160.5 697.5Q180 690 180 677L178 588V59Q256 64 345 64H458Q482 64 495 65H496Q509 65 518.5 46.0Q528 27 528.0 11.0Q528 -5 517 -5H516Q477 1 413 1H372Q180 1 142 -9Z" transform="translate(0.0, 72) scale(0.072, -0.072)" /><path d="M514 -4Q504 10 488.0 35.0Q472 60 430.0 119.5Q388 179 300 312Q162 110 136.0 70.5Q110 31 103.0 20.5Q96 10 89.5 0.0Q83 -10 63.0 -10.0Q43 -10 26.0 -2.5Q9 5 9 15Q9 18 14 25Q70 89 116.0 158.5Q162 228 261 369Q113 596 53 663Q45 672 45 677Q45 690 65.0 699.0Q85 708 102.0 708.0Q119 708 124 700Q149 653 211.0 562.0Q273 471 307 419Q369 506 405.5 558.0Q442 610 461.0 637.0Q480 664 488 676L500 694Q505 700 518.0 700.0Q531 700 549.0 688.5Q567 677 567.0 668.5Q567 660 553.0 646.0Q539 632 458 524Q394 435 343 361Q456 191 499.0 134.5Q542 78 590 28Q594 24 594 19Q594 8 574.5 -2.5Q555 -13 538.5 -13.0Q522 -13 514 -4Z" transform="translate(39.384, 72) scale(0.072, -0.072)" /><path d="M371 -17Q174 -17 97 113Q56 182 56 280Q56 465 156 586Q258 713 411.5 713.0Q565 713 633 628Q637 624 637.0 612.5Q637 601 624.0 584.5Q611 568 600.5 568.0Q590 568 586 574Q572 596 544 616Q494 651 421.0 651.0Q348 651 297.0 623.5Q246 596 208 547Q126 443 126 295Q126 118 240 70Q295 46 365.5 46.0Q436 46 492.0 79.0Q548 112 582.5 171.0Q617 230 617 308Q617 311 613 311L499 303Q478 302 424 295H422Q408 295 396.0 313.5Q384 332 384.0 346.5Q384 361 396 361H410Q454 361 480 363L604 370Q612 371 621.0 372.5Q630 374 638.0 374.0Q646 374 658 365Q689 342 689 326Q689 319 684.5 314.0Q680 309 680 298V97Q680 89 680.5 71.0Q681 53 681.5 35.0Q682 17 682 7Q682 -6 662.0 -6.0Q642 -6 625.0 0.5Q608 7 608 16V17Q613 70 613 126Q570 35 463 -1Q416 -17 371 -17Z" transform="translate(82.584, 72) scale(0.072, -0.072)" /><path d="M666 7Q660 -18 639.5 -18.0Q619 -18 600.0 -2.0Q581 14 573 46Q496 378 439 581Q405 472 361.5 315.5Q318 159 304.5 111.0Q291 63 287.0 45.5Q283 28 275.5 5.5Q268 -17 249.5 -17.0Q231 -17 213.0 -1.0Q195 15 187 46Q62 562 10 684Q9 686 9 689Q9 705 48.5 705.0Q88 705 92 685L106 632Q170 415 236 100Q271 245 309.0 374.0Q347 503 367.5 573.5Q388 644 390 670Q390 690 427 690Q445 690 462.5 684.0Q480 678 481 667Q483 654 493.5 619.5Q504 585 547.5 420.0Q591 255 625 99Q707 397 743.5 516.5Q780 636 796 701Q799 711 812.5 711.0Q826 711 840 706Q874 692 874 673Q874 670 868 656Q819 541 683 79Q679 63 675.0 44.5Q671 26 666 7Z" transform="translate(136.728, 72) scale(0.072, -0.072)" /><path d="M666 7Q660 -18 639.5 -18.0Q619 -18 600.0 -2.0Q581 14 573 46Q496 378 439 581Q405 472 361.5 315.5Q318 159 304.5 111.0Q291 63 287.0 45.5Q283 28 275.5 5.5Q268 -17 249.5 -17.0Q231 -17 213.0 -1.0Q195 15 187 46Q62 562 10 684Q9 686 9 689Q9 705 48.5 705.0Q88 705 92 685L106 632Q170 415 236 100Q271 245 309.0 374.0Q347 503 367.5 573.5Q388 644 390 670Q390 690 427 690Q445 690 462.5 684.0Q480 678 481 667Q483 654 493.5 619.5Q504 585 547.5 420.0Q591 255 625 99Q707 397 743.5 516.5Q780 636 796 701Q799 711 812.5 711.0Q826 711 840 706Q874 692 874 673Q874 670 868 656Q819 541 683 79Q679 63 675.0 44.5Q671 26 666 7Z" transform="translate(225.28799999999998, 72) scale(0.072, -0.072)" /><path d="M244 -18Q193 -18 151.5 7.5Q110 33 86.0 81.0Q62 129 62 195V209Q41 225 41 241Q41 254 60 254L69 255Q84 334 155.0 410.0Q226 486 319 486Q381 486 418 464Q485 425 485 340Q485 306 479.5 286.0Q474 266 454.0 253.5Q434 241 389 227Q289 196 140 196H127V186Q127 121 160.5 81.0Q194 41 251 41Q377 41 455 125Q468 140 478.0 140.0Q488 140 488.0 129.5Q488 119 473.5 96.0Q459 73 429 46Q356 -18 244 -18ZM135 252H155Q267 252 362 278Q398 289 408.5 302.0Q419 315 419 341Q419 428 318 428Q249 428 199.0 370.5Q149 313 135 252Z" transform="translate(288.64799999999997, 72) scale(0.072, -0.072)" /><path d="M161 -1Q161 -11 143.5 -11.0Q126 -11 108.0 -3.5Q90 4 90 17L92 115V364L89 471Q89 481 106.5 481.0Q124 481 142.0 473.5Q160 466 160 453V439Q158 411 158 376Q190 429 241.5 457.0Q293 485 344 485Q436 485 470 422Q496 376 496 297V105L499 -1Q499 -11 481.5 -11.0Q464 -11 446.0 -3.5Q428 4 428 16V17Q429 25 429 44L430 115V293Q430 352 414.0 387.5Q398 423 348 423Q269 423 215.5 365.5Q162 308 160 162Q159 129 158 105V89Q158 59 161 -1Z" transform="translate(327.74399999999997, 72) scale(0.072, -0.072)" /><path d="M179 -1Q179 -11 160.5 -11.0Q142 -11 123.0 -3.5Q104 4 104 17L106 112V589L103 695Q103 705 122.0 705.0Q141 705 159.5 697.5Q178 690 178 677L176 588V412Q289 500 384.0 590.5Q479 681 488.5 692.5Q498 704 513.0 704.0Q528 704 549.0 692.5Q570 681 570 670Q570 665 560.5 657.0Q551 649 531.0 633.0Q511 617 447.5 559.0Q384 501 256 398Q257 398 274.5 378.0Q292 358 322 325Q509 119 618 27Q622 24 622 20Q622 10 602.0 0.5Q582 -9 559.0 -9.0Q536 -9 529 2Q512 25 489 49Q307 239 206 357L176 333V111Z" transform="translate(370.08, 72) scale(0.072, -0.072)" /><path d="M217 -18Q144 -18 100.0 31.5Q56 81 56 175Q56 300 134 394Q169 437 213.0 461.5Q257 486 303 486Q381 486 413 420V475Q413 485 432.0 485.0Q451 485 470.0 478.0Q489 471 489 459V457Q476 368 476 195Q476 90 511 35Q513 31 513.0 24.5Q513 18 499.5 2.5Q486 -13 470 -13Q429 -13 415 118Q378 48 325.5 15.0Q273 -18 217 -18ZM220 42Q264 42 307 74Q411 150 411 330Q411 355 412 380Q403 371 397.0 371.0Q391 371 388 375Q357 428 297.5 428.0Q238 428 181.0 356.0Q124 284 124 180Q124 42 220 42Z" transform="translate(415.44, 72) scale(0.072, -0.072)" /><path d="M169 -1Q169 -10 151.5 -10.0Q134 -10 114.5 -2.5Q95 5 95 17L97 105V368L94 475Q94 484 112.0 484.0Q130 484 149.0 476.5Q168 469 168 457L166 368V105ZM164.5 678.0Q180 658 180.0 637.5Q180 617 167.0 603.5Q154 590 133.0 590.0Q112 590 96.5 609.5Q81 629 81.0 649.5Q81 670 93.5 684.0Q106 698 127.5 698.0Q149 698 164.5 678.0Z" transform="translate(456.84, 72) scale(0.072, -0.072)" /><path d="M326 0Q326 -11 306.5 -11.0Q287 -11 268.0 -3.0Q249 5 249 18L251 107L252 632L126 625Q101 624 77.5 620.5Q54 617 43 616H42Q29 616 19.0 634.0Q9 652 9.0 668.5Q9 685 22 685L93 683L447 702Q470 704 494.0 706.0Q518 708 530 710H533Q545 710 554.0 692.0Q563 674 563.0 657.5Q563 641 551 641L471 644L322 636L323 106Z" transform="translate(500.97599999999994, 72) scale(0.072, -0.072)" /><path d="M357 -18Q270 -18 200.5 14.0Q131 46 91.0 114.5Q51 183 51.0 282.0Q51 381 78.0 457.5Q105 534 153.5 591.5Q202 649 267.0 681.0Q332 713 408 713Q557 713 628 628Q631 624 631.0 613.5Q631 603 618.0 586.0Q605 569 593.5 569.0Q582 569 576 578Q530 649 409.5 649.0Q289 649 208 550Q123 449 123.0 288.5Q123 128 238 72Q292 45 350.5 45.0Q409 45 460.0 62.5Q511 80 558.0 112.0Q605 144 636 185Q648 200 661.0 200.0Q674 200 674.0 187.0Q674 174 660 150Q626 91 556 44Q467 -18 357 -18Z" transform="translate(542.52, 72) scale(0.072, -0.072)" /></g></svg>
